src/images_karasa_jaga_svg/cmd/32/combine.svg

<svg height="32" viewBox="0 0 32 32" width="32" xmlns="http://www.w3.org/2000/svg" xmlns:xlink="http://www.w3.org/1999/xlink"><linearGradient id="a" gradientTransform="matrix(0 .06940294 .11152914 0 -45.287823 40.766246)" gradientUnits="userSpaceOnUse" x1="399.77466" x2="399.77466" y1="1164.6696" y2="549.06134"><stop offset="0" stop-color="#717174"/><stop offset=".5" stop-color="#9c9ca1"/><stop offset="1" stop-color="#bdbdc2"/></linearGradient><linearGradient id="b" gradientUnits="userSpaceOnUse" x1="61.384575" x2="112.21442" xlink:href="#c" y1="58.160755" y2="11.951803"/><linearGradient id="c"><stop offset="0" stop-color="#fff"/><stop offset=".42597079" stop-color="#fff"/><stop offset=".5892781" stop-color="#e5e5e5"/><stop offset=".80219781" stop-color="#eaeaea"/><stop offset="1" stop-color="#eee"/></linearGradient><linearGradient id="d" gradientUnits="userSpaceOnUse" x1="130.698" x2="79.868164" xlink:href="#e" y1="21.193592" y2="53.539864"/><linearGradient id="e"><stop offset="0" stop-color="#fff"/><stop offset="1" stop-color="#fff" stop-opacity="0"/></linearGradient><linearGradient id="f" gradientUnits="userSpaceOnUse" x1="47.9548" x2="124.00195" y1="42.023567" y2="42.023567"><stop offset="0" stop-color="#b4b4b6"/><stop offset=".5" stop-color="#9c9ca1"/><stop offset="1" stop-color="#cdcdd1"/></linearGradient><linearGradient id="g" gradientTransform="matrix(0 .57141948 .76189349 0 1.524017 42.98484)" gradientUnits="userSpaceOnUse" x1="119.57646" x2="15.999996" xlink:href="#c" y1="23.792561" y2="109.6508"/><linearGradient id="h" gradientTransform="matrix(0 -1.3692663 -1.7142582 0 105.14142 195.38719)" gradientUnits="userSpaceOnUse" x1="102.31124" x2="74.330322" xlink:href="#e" y1="-5.830213" y2="32"/><g transform="scale(.25)"><path d="m15.164062 44c-1.753291 0-3.164062 1.213165-3.164062 2.720703v66.558597c0 1.50754 1.410771 2.7207 3.164062 2.7207h65.671876c1.753291 0 3.164062-1.21316 3.164062-2.7207v-33.332034a38.023575 38.023575 0 0 1 -35.974609-35.947266z" fill="url(#a)" opacity=".75"/><path d="m17.523438 48c-.844178 0-1.523438.564277-1.523438 1.265625v61.468755c0 .70134.67926 1.26562 1.523438 1.26562h60.953124c.844178 0 1.523438-.56428 1.523438-1.26562v-31.207036a38.023575 38.023575 0 0 1 -31.550781-31.527344z" fill="url(#g)" fill-rule="evenodd"/><path d="m53.699219 62.074219c-13.085253 2.27686-26.953551 3.551767-37.699219 4.65625v37.269531c16.614895-6.691249 38.976825-16.018308 55.667969-26.773438a38.023575 38.023575 0 0 1 -17.96875-15.152343z" fill="url(#h)" fill-rule="evenodd"/><path d="m85.978516 4a38.023575 38.023575 0 0 0 -38.023438 38.023438 38.023575 38.023575 0 0 0 .070313 1.976562h32.810547c1.753291 0 3.164062 1.213165 3.164062 2.720703v33.226563a38.023575 38.023575 0 0 0 1.978516.09961 38.023575 38.023575 0 0 0 38.023434-38.023438 38.023575 38.023575 0 0 0 -38.023434-38.023438z" fill="url(#f)"/><path d="m85.978516 8a34.021244 34.021244 0 0 0 -34.021485 34.021484 34.021244 34.021244 0 0 0 .070313 1.978516h28.808594c1.753291 0 3.164062 1.213165 3.164062 2.720703v29.222656a34.021244 34.021244 0 0 0 1.978516.09961 34.021244 34.021244 0 0 0 34.021484-34.021485 34.021244 34.021244 0 0 0 -34.021484-34.021484z" fill="url(#b)"/><path d="m112.85938 21.193359c-18.021073 9.506515-41.002253 20.084862-60.623052 22.101563v.705078h28.59961c1.753291 0 3.164062 1.213165 3.164062 2.720703v20.822266c12.976338-9.719762 25.37269-20.866355 35.64258-30.169922a34.021243 34.021243 0 0 0 -6.7832-16.179688z" fill="url(#d)" fill-rule="evenodd"/><path d="m48.025391 44a38.023575 38.023575 0 0 0 35.974609 35.947266v-33.226563c0-1.507538-1.410771-2.720703-3.164062-2.720703zm4.470703 4h25.980468c.844178 0 1.523438.564277 1.523438 1.265625v26.216797a34.021244 34.021244 0 0 1 -27.503906-27.482422z" fill="url(#a)" opacity=".75"/></g></svg>

<?xml version="1.0" encoding="UTF-8" standalone="no"?>
<!-- Created with Inkscape (http://www.inkscape.org/) -->

<svg
   xmlns:dc="http://purl.org/dc/elements/1.1/"
   xmlns:cc="http://creativecommons.org/ns#"
   xmlns:rdf="http://www.w3.org/1999/02/22-rdf-syntax-ns#"
   xmlns:svg="http://www.w3.org/2000/svg"
   xmlns="http://www.w3.org/2000/svg"
   xmlns:xlink="http://www.w3.org/1999/xlink"
   xmlns:sodipodi="http://sodipodi.sourceforge.net/DTD/sodipodi-0.dtd"
   xmlns:inkscape="http://www.inkscape.org/namespaces/inkscape"
   version="1.1"
   id="svg2"
   width="128"
   height="128"
   viewBox="0 0 128 128"
   sodipodi:docname="combine.svg"
   inkscape:version="0.92.3 (unknown)"
   inkscape:export-filename="/home/rizmut/Dokumen/Rizmut/Github/libreoffice-style-karasa-jaga/build/images_karasa_jaga/cmd/32/combine.png"
   inkscape:export-xdpi="24"
   inkscape:export-ydpi="24">
  <metadata
     id="metadata8">
    <rdf:RDF>
      <cc:Work
         rdf:about="">
        <dc:format>image/svg+xml</dc:format>
        <dc:type
           rdf:resource="http://purl.org/dc/dcmitype/StillImage" />
        <dc:title></dc:title>
      </cc:Work>
    </rdf:RDF>
  </metadata>
  <defs
     id="defs6">
    <linearGradient
       id="linearGradient4112">
      <stop
         id="stop4114"
         offset="0"
         style="stop-color:#bbf10e;stop-opacity:1" />
      <stop
         id="stop4116"
         offset="1"
         style="stop-color:#5f9207;stop-opacity:1" />
    </linearGradient>
    <linearGradient
       id="linearGradient4105">
      <stop
         id="stop4107"
         offset="0"
         style="stop-color:#033a13;stop-opacity:1" />
      <stop
         id="stop4109"
         offset="1"
         style="stop-color:#398c37;stop-opacity:1" />
    </linearGradient>
    <linearGradient
       inkscape:collect="always"
       xlink:href="#linearGradient4373"
       id="linearGradient10248"
       gradientUnits="userSpaceOnUse"
       gradientTransform="matrix(0.17638886,0,0,0.17638871,11.288891,263.13331)"
       x1="122.70804"
       y1="2.1668341"
       x2="132"
       y2="37.94305" />
    <linearGradient
       id="linearGradient4373">
      <stop
         id="stop4375"
         style="stop-color:#717174;stop-opacity:1"
         offset="0" />
      <stop
         id="stop4377"
         style="stop-color:#9c9ca1;stop-opacity:1"
         offset="0.5" />
      <stop
         id="stop4379"
         style="stop-color:#bdbdc2;stop-opacity:1"
         offset="1" />
    </linearGradient>
    <linearGradient
       inkscape:collect="always"
       xlink:href="#linearGradient2431"
       id="linearGradient7831"
       x1="66.314041"
       y1="-24.452526"
       x2="109.66501"
       y2="-63.862495"
       gradientUnits="userSpaceOnUse"
       gradientTransform="matrix(1.1725194,0,0,1.1725194,-16.369925,86.831818)" />
    <linearGradient
       id="linearGradient2431">
      <stop
         id="stop2433"
         style="stop-color:#ffffff;stop-opacity:1"
         offset="0" />
      <stop
         id="stop2435"
         style="stop-color:#ffffff;stop-opacity:1"
         offset="0.42597079" />
      <stop
         id="stop2437"
         style="stop-color:#e5e5e5;stop-opacity:1"
         offset="0.5892781" />
      <stop
         id="stop2439"
         style="stop-color:#eaeaea;stop-opacity:1"
         offset="0.80219781" />
      <stop
         id="stop2441"
         style="stop-color:#eeeeee;stop-opacity:1"
         offset="1" />
    </linearGradient>
    <linearGradient
       inkscape:collect="always"
       xlink:href="#linearGradient3310"
       id="linearGradient7833"
       x1="125.42899"
       y1="-55.980503"
       x2="82.078033"
       y2="-28.393522"
       gradientUnits="userSpaceOnUse"
       gradientTransform="matrix(1.1725194,0,0,1.1725194,-16.369925,86.831818)" />
    <linearGradient
       id="linearGradient3310">
      <stop
         id="stop3312"
         style="stop-color:#ffffff;stop-opacity:1"
         offset="0" />
      <stop
         id="stop3314"
         style="stop-color:#ffffff;stop-opacity:0"
         offset="1" />
    </linearGradient>
    <linearGradient
       inkscape:collect="always"
       xlink:href="#linearGradient7422-6"
       id="linearGradient1705"
       x1="53.544228"
       y1="38.029163"
       x2="121.03486"
       y2="38.029163"
       gradientUnits="userSpaceOnUse"
       gradientTransform="matrix(1.1267809,0,0,1.1267809,-12.377813,-0.82696664)" />
    <linearGradient
       id="linearGradient7422-6">
      <stop
         style="stop-color:#b4b4b6;stop-opacity:1;"
         offset="0"
         id="stop7424-3" />
      <stop
         id="stop5367"
         offset="0.5"
         style="stop-color:#9c9ca1;stop-opacity:1;" />
      <stop
         id="stop7426-2"
         offset="1"
         style="stop-color:#cdcdd1;stop-opacity:1;" />
    </linearGradient>
    <linearGradient
       x1="399.77466"
       y1="1164.6696"
       x2="399.77466"
       y2="549.06134"
       id="linearGradient5501-5"
       xlink:href="#linearGradient4373"
       gradientUnits="userSpaceOnUse"
       gradientTransform="matrix(0,0.06940294,0.11152914,0,-45.287823,40.766246)" />
    <linearGradient
       x1="119.57646"
       y1="23.792561"
       x2="15.999996"
       y2="109.6508"
       id="linearGradient5503-3"
       xlink:href="#linearGradient2431"
       gradientUnits="userSpaceOnUse"
       gradientTransform="matrix(0,0.57141948,0.76189349,0,1.5240172,42.98484)" />
    <linearGradient
       x1="102.31124"
       y1="-5.8302126"
       x2="74.330322"
       y2="32"
       id="linearGradient5505-2"
       xlink:href="#linearGradient3310"
       gradientUnits="userSpaceOnUse"
       gradientTransform="matrix(0,-1.3692663,-1.7142582,0,105.14142,195.38719)" />
    <linearGradient
       inkscape:collect="always"
       xlink:href="#linearGradient4373"
       id="linearGradient887"
       gradientUnits="userSpaceOnUse"
       gradientTransform="matrix(0,0.06940294,0.11152914,0,-45.287823,40.766246)"
       x1="399.77466"
       y1="1164.6696"
       x2="399.77466"
       y2="549.06134" />
  </defs>
  <sodipodi:namedview
     pagecolor="#ffffff"
     bordercolor="#666666"
     borderopacity="1"
     objecttolerance="10"
     gridtolerance="10"
     guidetolerance="10"
     inkscape:pageopacity="0"
     inkscape:pageshadow="2"
     inkscape:window-width="1366"
     inkscape:window-height="706"
     id="namedview4"
     showgrid="true"
     inkscape:snap-page="true"
     inkscape:zoom="3.4570314"
     inkscape:cx="65.63693"
     inkscape:cy="51.887125"
     inkscape:window-x="0"
     inkscape:window-y="0"
     inkscape:window-maximized="1"
     inkscape:current-layer="g1015"
     inkscape:snap-global="true">
    <inkscape:grid
       type="xygrid"
       id="grid977"
       spacingx="4"
       spacingy="4"
       empspacing="1" />
  </sodipodi:namedview>
  <g
     id="g1015">
    <path
       style="opacity:0.75;fill:url(#linearGradient5501-5);fill-opacity:1;fill-rule:nonzero;stroke:none;stroke-width:13.71407127;stroke-linecap:round;stroke-linejoin:round;stroke-miterlimit:4;stroke-dasharray:none;stroke-dashoffset:4;stroke-opacity:1"
       d="M 15.164062 44 C 13.410771 44 12 45.213165 12 46.720703 L 12 113.2793 C 12 114.78684 13.410771 116 15.164062 116 L 80.835938 116 C 82.589229 116 84 114.78684 84 113.2793 L 84 79.947266 A 38.023575 38.023575 0 0 1 48.025391 44 L 15.164062 44 z "
       id="rect5489" />
    <path
       style="fill:url(#linearGradient5503-3);fill-opacity:1;fill-rule:evenodd;stroke:none;stroke-width:54.8562851;stroke-linecap:round;stroke-linejoin:round;stroke-miterlimit:4;stroke-dasharray:none;stroke-opacity:1"
       d="M 17.523438 48 C 16.67926 48 16 48.564277 16 49.265625 L 16 110.73438 C 16 111.43572 16.67926 112 17.523438 112 L 78.476562 112 C 79.32074 112 80 111.43572 80 110.73438 L 80 79.527344 A 38.023575 38.023575 0 0 1 48.449219 48 L 17.523438 48 z "
       id="rect5491" />
    <path
       style="fill:url(#linearGradient5505-2);fill-opacity:1;fill-rule:evenodd;stroke:none;stroke-width:6.85703564px;stroke-linecap:butt;stroke-linejoin:miter;stroke-opacity:1"
       d="M 53.699219 62.074219 C 40.613966 64.351079 26.745668 65.625986 16 66.730469 L 16 104 C 32.614895 97.308751 54.976825 87.981692 71.667969 77.226562 A 38.023575 38.023575 0 0 1 53.699219 62.074219 z "
       id="path5493" />
    <path
       style="opacity:1;vector-effect:none;fill:url(#linearGradient1705);fill-opacity:1;stroke:none;stroke-width:6.91337776;stroke-linecap:butt;stroke-linejoin:miter;stroke-miterlimit:4;stroke-dasharray:none;stroke-dashoffset:0;stroke-opacity:1"
       d="M 85.978516 4 A 38.023575 38.023575 0 0 0 47.955078 42.023438 A 38.023575 38.023575 0 0 0 48.025391 44 L 80.835938 44 C 82.589229 44 84 45.213165 84 46.720703 L 84 79.947266 A 38.023575 38.023575 0 0 0 85.978516 80.046875 A 38.023575 38.023575 0 0 0 124.00195 42.023438 A 38.023575 38.023575 0 0 0 85.978516 4 z "
       id="path1671" />
    <path
       style="opacity:1;vector-effect:none;fill:url(#linearGradient7831);fill-opacity:1;stroke:none;stroke-width:6.18568087;stroke-linecap:butt;stroke-linejoin:miter;stroke-miterlimit:4;stroke-dasharray:none;stroke-dashoffset:0;stroke-opacity:1"
       d="M 85.978516 8 A 34.021244 34.021244 0 0 0 51.957031 42.021484 A 34.021244 34.021244 0 0 0 52.027344 44 L 80.835938 44 C 82.589229 44 84 45.213165 84 46.720703 L 84 75.943359 A 34.021244 34.021244 0 0 0 85.978516 76.042969 A 34.021244 34.021244 0 0 0 120 42.021484 A 34.021244 34.021244 0 0 0 85.978516 8 z "
       id="circle1733" />
    <path
       style="fill:url(#linearGradient7833);fill-opacity:1;fill-rule:evenodd;stroke:none;stroke-width:7.95752954px;stroke-linecap:butt;stroke-linejoin:miter;stroke-opacity:1"
       d="M 112.85938 21.193359 C 94.838307 30.699874 71.857127 41.278221 52.236328 43.294922 L 52.236328 44 L 80.835938 44 C 82.589229 44 84 45.213165 84 46.720703 L 84 67.542969 C 96.976338 57.823207 109.37269 46.676614 119.64258 37.373047 A 34.021243 34.021243 0 0 0 112.85938 21.193359 z "
       id="path1735" />
    <path
       style="opacity:0.75;fill:url(#linearGradient887);fill-opacity:1;fill-rule:nonzero;stroke:none;stroke-width:13.71407127;stroke-linecap:round;stroke-linejoin:round;stroke-miterlimit:4;stroke-dasharray:none;stroke-dashoffset:4;stroke-opacity:1"
       d="M 48.025391 44 A 38.023575 38.023575 0 0 0 84 79.947266 L 84 46.720703 C 84 45.213165 82.589229 44 80.835938 44 L 48.025391 44 z M 52.496094 48 L 78.476562 48 C 79.32074 48 80 48.564277 80 49.265625 L 80 75.482422 A 34.021244 34.021244 0 0 1 52.496094 48 z "
       id="rect883" />
  </g>
</svg>
